exported-svg/flag.svg

<svg height="24" viewBox="0 0 24 24" width="24" xmlns="http://www.w3.org/2000/svg"><path d="m5 15.7419268v6.7580732c0 .2761424-.22385763.5-.5.5s-.5-.2238576-.5-.5v-7c0-.2761424.22385763-.5.5-.5s.5.2238576.5.5v.2419268c-.06967889.0449268-.11793401.083114-.14644661.1116266-.31498243.3149824-.85355339.091899-.85355339-.3535534v-12c0-.13260824.05267842-.2597852.14644661-.35355339.17228845-.17228845.51042094-.39771011 1.04285805-.61068496.84203279-.33681311 1.93624975-.53576165 3.31069534-.53576165 1.33328171 0 2.2538149.2630095 4.1856953 1.03576165 1.8181196.72724785 2.6475864.96423835 3.8143047.96423835 1.2505544 0 2.2188375-.17605146 2.9393047-.46423835.4050628-.16202515.6294304-.31160349.7071419-.38931504.3149824-.31498243.8535534-.09189904.8535534.35355339v12c0 .1326082-.0526784.2597852-.1464466.3535534-.1722885.1722884-.5104209.3977101-1.0428581.6106849-.8420328.3368132-1.9362497.5357617-3.3106953.5357617-1.3332817 0-2.2538149-.2630095-4.1856953-1.0357617-1.8181196-.7272478-2.64758641-.9642383-3.8143047-.9642383-1.25055441 0-2.21883745.1760515-2.93930466.4642383-.25644408.1025777-.44046333.2001665-.56069534.2776885zm0-12.00000003v10.87357573c.06014533-.0266884.12322875-.0533105.18930466-.0797408.84203279-.3368132 1.93624975-.5357617 3.31069534-.5357617 1.33328171 0 2.2538149.2630095 4.1856953 1.0357617 1.8181196.7272478 2.6475864.9642383 3.8143047.9642383 1.2505544 0 2.2188375-.1760515 2.9393047-.4642383.256444-.1025777.4404633-.2001665.5606953-.2776885v-10.87357569c-.0601453.02668841-.1232287.05331047-.1893047.07974084-.8420328.33681311-1.9362497.53576165-3.3106953.53576165-1.3332817 0-2.2538149-.2630095-4.1856953-1.03576165-1.8181196-.72724785-2.64758641-.96423835-3.8143047-.96423835-1.25055441 0-2.21883745.17605146-2.93930466.46423835-.25644408.10257763-.44046333.20016643-.56069534.27768842z"/></svg>

<?xml version="1.0" encoding="UTF-8"?>
<svg width="24px" height="24px" viewBox="0 0 24 24" version="1.1" xmlns="http://www.w3.org/2000/svg" xmlns:xlink="http://www.w3.org/1999/xlink">
    <!-- Generator: Sketch 55.2 (78181) - https://sketchapp.com -->
    <title>flag</title>
    <desc>Created with Sketch.</desc>
    <g id="flag" stroke="none" stroke-width="1" fill="none" fill-rule="evenodd">
        <path d="M5,15.7419268 L5,22.5 C5,22.7761424 4.77614237,23 4.5,23 C4.22385763,23 4,22.7761424 4,22.5 L4,15.5 C4,15.2238576 4.22385763,15 4.5,15 C4.77614237,15 5,15.2238576 5,15.5 L5,15.7419268 C4.93032111,15.7868536 4.88206599,15.8250408 4.85355339,15.8535534 C4.53857096,16.1685358 4,15.9454524 4,15.5 L4,3.5 C4,3.36739176 4.05267842,3.2402148 4.14644661,3.14644661 C4.31873506,2.97415816 4.65686755,2.7487365 5.18930466,2.53576165 C6.03133745,2.19894854 7.12555441,2 8.5,2 C9.83328171,2 10.7538149,2.2630095 12.6856953,3.03576165 C14.5038149,3.7630095 15.3332817,4 16.5,4 C17.7505544,4 18.7188375,3.82394854 19.4393047,3.53576165 C19.8443675,3.3737365 20.0687351,3.22415816 20.1464466,3.14644661 C20.461429,2.83146418 21,3.05454757 21,3.5 L21,15.5 C21,15.6326082 20.9473216,15.7597852 20.8535534,15.8535534 C20.6812649,16.0258418 20.3431325,16.2512635 19.8106953,16.4642383 C18.9686625,16.8010515 17.8744456,17 16.5,17 C15.1667183,17 14.2461851,16.7369905 12.3143047,15.9642383 C10.4961851,15.2369905 9.66671829,15 8.5,15 C7.24944559,15 6.28116255,15.1760515 5.56069534,15.4642383 C5.30425126,15.566816 5.12023201,15.6644048 5,15.7419268 Z M5,3.74192677 L5,14.6155025 C5.06014533,14.5888141 5.12322875,14.562192 5.18930466,14.5357617 C6.03133745,14.1989485 7.12555441,14 8.5,14 C9.83328171,14 10.7538149,14.2630095 12.6856953,15.0357617 C14.5038149,15.7630095 15.3332817,16 16.5,16 C17.7505544,16 18.7188375,15.8239485 19.4393047,15.5357617 C19.6957487,15.433184 19.879768,15.3355952 20,15.2580732 L20,4.38449751 C19.9398547,4.41118592 19.8767713,4.43780798 19.8106953,4.46423835 C18.9686625,4.80105146 17.8744456,5 16.5,5 C15.1667183,5 14.2461851,4.7369905 12.3143047,3.96423835 C10.4961851,3.2369905 9.66671829,3 8.5,3 C7.24944559,3 6.28116255,3.17605146 5.56069534,3.46423835 C5.30425126,3.56681598 5.12023201,3.66440478 5,3.74192677 Z" id="Combined-Shape" fill="#000000" fill-rule="nonzero"></path>
    </g>
</svg>
